X: 26606
T: Mick O'Connor's
R: reel
M: 4/4
K: Dmajor
|:d2FB AFED|FAAF ABde|fA A2 FAde|f2 af efdB|
A3F ABde|fAAd B3A|FABc defg|1 afef dfef:|2 afef dcde||
|:fa a2 bafe|f3d efdB|ABde f3g|a3f efde|
fa a2 bafb|afde f3e|defe dBBd|1 AFEF A3d:|2 AFEF dfef:|

